X: 39702
T: Terry 'Cuz' Teahan's
R: polka
M: 2/4
K: Dmajor
|:D/E/|FA FA|d2- dD/E/|FA FA|G/F/E E/F/D/E/|
FA F/G/A|dc/d/ f>e|dB AF|EF/E/ D:|
|:d/e/|fe ed|Bd Ad|fe- ed|fe e2|
d>e f/e/d|Bd A2|F^E/F/ A/B/A/F/|ED- D:|

